flags/gp.svg

<svg width="512" height="512" viewBox="0 0 512 512" fill="none" xmlns="http://www.w3.org/2000/svg">
<rect y="136" width="512" height="240" fill="var(--flag-palette-black, #333333)"/>
<rect y="344" width="512" height="168" fill="var(--flag-palette-black, #333333)"/>
<rect width="512" height="168" fill="var(--flag-palette-blue, #0052b4)"/>
<path d="M94 228C93.336 227.917 92.664 227.917 92 228C90.936 228.287 89.9427 228.79 89.0823 229.478C88.222 230.166 87.513 231.025 87 232C85.8897 233.791 85.5303 235.947 86 238L93 263L54 240C53.0829 239.467 52.0687 239.121 51.0166 238.983C49.9645 238.845 48.8955 238.918 47.8718 239.197C46.8481 239.476 45.8902 239.956 45.0538 240.609C44.2174 241.262 43.5192 242.075 43 243C42.4664 243.917 42.1205 244.932 41.9826 245.984C41.8447 247.036 41.9174 248.105 42.1966 249.128C42.4758 250.152 42.9559 251.11 43.6088 251.946C44.2618 252.783 45.0746 253.481 46 254L85 277L60 283C58.936 283.287 57.9427 283.79 57.0823 284.478C56.222 285.166 55.513 286.025 55 287C53.8897 288.791 53.5303 290.947 54 293C54.2317 294.068 54.6798 295.077 55.3165 295.965C55.9532 296.853 56.7651 297.601 57.702 298.164C58.639 298.726 59.6812 299.09 60.7644 299.234C61.8476 299.378 62.9487 299.298 64 299L105 288L113 293L87 299C85.224 299.802 83.8017 301.224 83 303C81.8897 304.791 81.5303 306.947 82 309C82.2317 310.068 82.6798 311.077 83.3165 311.965C83.9532 312.853 84.7651 313.601 85.702 314.164C86.639 314.726 87.6812 315.09 88.7644 315.234C89.8476 315.378 90.9487 315.298 92 315L132 304L140 309L115 315C113.224 315.802 111.802 317.224 111 319C109.89 320.791 109.53 322.947 110 325C110.232 326.068 110.68 327.077 111.316 327.965C111.953 328.853 112.765 329.601 113.702 330.164C114.639 330.726 115.681 331.09 116.764 331.234C117.848 331.378 118.949 331.298 120 331L160 320L185 334C185.917 334.534 186.931 334.88 187.983 335.018C189.035 335.156 190.104 335.083 191.128 334.804C192.152 334.524 193.11 334.044 193.946 333.391C194.783 332.738 195.481 331.926 196 331C196.78 329.25 196.907 327.279 196.356 325.443C195.806 323.608 194.615 322.032 193 321L168 306L157 266C156.768 264.932 156.32 263.923 155.684 263.035C155.047 262.147 154.235 261.399 153.298 260.837C152.361 260.275 151.319 259.911 150.236 259.767C149.152 259.623 148.051 259.702 147 260C145.936 260.287 144.943 260.79 144.082 261.478C143.222 262.166 142.513 263.025 142 264C141.222 265.925 141.222 268.076 142 270L148 295L140 290L129 250C128.523 248.055 127.334 246.36 125.668 245.249C124.001 244.138 121.979 243.692 120 244C118.936 244.287 117.943 244.79 117.082 245.478C116.222 246.166 115.513 247.025 115 248C113.89 249.791 113.53 251.947 114 254L121 279L113 274L102 234C101.546 232.24 100.507 230.687 99.053 229.596C97.5989 228.506 95.8167 227.943 94 228ZM274 324L396 431C413 418 428 401 440 383L274 324Z" fill="var(--flag-palette-green, #6da544)"/>
<path d="M256 480L235 451L204 470L196 435L160 440L166 405L130 396L149 365L120 344L149 323L130 292L166 284L160 248L196 254L204 218L235 237L256 208L277 237L308 218L316 254L352 248L346 284L382 292L363 323L392 344L363 365L382 396L346 404L352 440L316 435L308 470L277 451L256 480Z" fill="var(--flag-palette-yellow, #ffda44)"/>
<path d="M308.157 77.5574C308.641 79.2581 306.895 80.9157 305.198 80.2693C295.121 76.5664 282.996 80.8038 278.056 90.5456C282.383 90.7889 285.879 94.4629 285.909 98.7963C285.938 103.13 282.492 106.851 278.169 107.153C281.353 113.064 287.866 116.721 294.518 116.961C296.478 117.06 297.322 119.58 295.921 120.861C288.244 127.884 276.488 130.639 268.131 123.325C267.883 129.051 263.465 144 256 144C248.536 144 244.117 129.052 243.869 123.327C235.504 130.645 223.766 127.891 216.078 120.861C214.63 119.536 215.585 117.056 217.482 116.961C224.135 116.72 230.649 113.065 233.832 107.152C229.513 106.845 226.072 103.126 226.101 98.7964C226.13 94.4667 229.621 90.7943 233.943 90.5456C229.002 80.8048 216.88 76.5671 206.803 80.2693C205.104 80.9161 203.36 79.2571 203.843 77.5561C209.009 59.4084 227.948 55.6685 240.77 68.8777C237.968 53.6452 238.36 31.0835 255.144 24.1685C255.69 23.9438 256.303 23.9438 256.849 24.1685C273.657 31.0114 274.026 53.6796 271.231 68.8777C284.05 55.6598 302.99 59.4187 308.157 77.5574Z" fill="var(--flag-palette-yellow, #ffda44)"/>
<path d="M430.308 77.5574C430.792 79.2581 429.047 80.9157 427.349 80.2693C417.272 76.5664 405.147 80.8038 400.207 90.5456C404.534 90.7889 408.031 94.4629 408.06 98.7963C408.09 103.13 404.643 106.851 400.32 107.153C403.504 113.064 410.017 116.721 416.67 116.961C418.629 117.06 419.473 119.58 418.072 120.861C410.395 127.884 398.64 130.639 390.282 123.325C390.035 129.051 385.616 144 378.152 144C370.687 144 366.269 129.052 366.021 123.327C357.655 130.645 345.917 127.891 338.23 120.861C336.781 119.536 337.737 117.056 339.634 116.961C346.286 116.72 352.8 113.065 355.983 107.152C351.664 106.845 348.223 103.126 348.252 98.7964C348.282 94.4667 351.772 90.7943 356.095 90.5456C351.154 80.8048 339.031 76.5671 328.954 80.2693C327.256 80.9161 325.511 79.2571 325.995 77.5561C331.161 59.4084 350.099 55.6685 362.921 68.8777C360.119 53.6452 360.512 31.0835 377.296 24.1685C377.841 23.9438 378.454 23.9438 379 24.1685C395.808 31.0114 396.178 53.6796 393.382 68.8777C406.202 55.6598 425.142 59.4187 430.308 77.5574Z" fill="var(--flag-palette-yellow, #ffda44)"/>
<path d="M186.006 77.5574C186.489 79.2581 184.744 80.9157 183.046 80.2693C172.97 76.5664 160.845 80.8038 155.904 90.5456C160.231 90.7889 163.728 94.4629 163.758 98.7963C163.787 103.13 160.34 106.851 156.017 107.153C159.202 113.064 165.714 116.721 172.367 116.961C174.327 117.06 175.171 119.58 173.77 120.861C166.092 127.884 154.337 130.639 145.98 123.325C145.732 129.051 141.314 144 133.849 144C126.385 144 121.966 129.052 121.718 123.327C113.353 130.645 101.614 127.891 93.9268 120.861C92.4786 119.536 93.4341 117.056 95.3309 116.961C101.983 116.72 108.498 113.065 111.68 107.152C107.362 106.845 103.921 103.126 103.95 98.7964C103.979 94.4667 107.469 90.7943 111.792 90.5456C106.851 80.8048 94.7283 76.5671 84.6516 80.2693C82.9529 80.9161 81.2084 79.2571 81.692 77.5561C86.8578 59.4084 105.797 55.6685 118.619 68.8777C115.816 53.6452 116.209 31.0835 132.993 24.1685C133.539 23.9438 134.151 23.9438 134.697 24.1685C151.506 31.0114 151.875 53.6796 149.079 68.8777C161.899 55.6598 180.839 59.4187 186.006 77.5574Z" fill="var(--flag-palette-yellow, #ffda44)"/>
</svg>

<svg xmlns="http://www.w3.org/2000/svg" width="512" height="512" fill="none"><path fill="var(--flag-palette-black, #333333)" d="M0 136h512v240H0z"/><path fill="var(--flag-palette-black, #333333)" d="M0 344h512v168H0z"/><path fill="var(--flag-palette-blue, #0052b4)" d="M0 0h512v168H0z"/><path fill="var(--flag-palette-green, #6da544)" d="M94 228h-2a8 8 0 0 0-5 4 8 8 0 0 0-1 6l7 25-39-23a8 8 0 0 0-12 6 8 8 0 0 0 4 8l39 23-25 6a8 8 0 0 0-5 4 8 8 0 0 0 .3 9 8 8 0 0 0 8.7 3l41-11 8 5-26 6a8 8 0 0 0-4 4 8 8 0 0 0 .3 9 8 8 0 0 0 8.7 3l40-11 8 5-25 6a8 8 0 0 0-4 4 8 8 0 0 0 .3 9 8 8 0 0 0 8.7 3l40-11 25 14a8 8 0 0 0 11-3 8 8 0 0 0-3-10l-25-15-11-40a8 8 0 0 0-13-4.5 8 8 0 0 0-2 2.5 8 8 0 0 0 0 6l6 25-8-5-11-40a8 8 0 0 0-9-6 8 8 0 0 0-5 4 8 8 0 0 0-1 6l7 25-8-5-11-40a8 8 0 0 0-8-6m180 96 122 107c17-13 32-30 44-48z"/><path fill="var(--flag-palette-yellow, #ffda44)" d="m256 480-21-29-31 19-8-35-36 5 6-35-36-9 19-31-29-21 29-21-19-31 36-8-6-36 36 6 8-36 31 19 21-29 21 29 31-19 8 36 36-6-6 36 36 8-19 31 29 21-29 21 19 31-36 8 6 36-36-5-8 35-31-19zm52.2-402.4c.4 1.7-1.3 3.3-3 2.7-10-3.7-22.2.5-27.1 10.2 4.3.3 7.8 4 7.8 8.3s-3.4 8-7.7 8.4c3.2 5.9 9.7 9.5 16.3 9.8 2 0 2.8 2.6 1.4 3.9-7.7 7-19.4 9.7-27.8 2.4-.2 5.8-4.6 20.7-12.1 20.7s-11.9-15-12.1-20.7c-8.4 7.3-20.1 4.6-27.8-2.4-1.5-1.4-.5-3.8 1.4-4 6.6-.2 13.1-3.8 16.3-9.7-4.3-.4-7.7-4-7.7-8.4 0-4.3 3.5-8 7.8-8.3a22 22 0 0 0-27.1-10.2c-1.7.6-3.4-1-3-2.7 5.2-18.2 24.1-22 37-8.7C238 53.6 238.4 31 255 24.2q1-.4 1.7 0c16.9 6.8 17.2 29.5 14.4 44.7 12.9-13.2 31.8-9.5 37 8.7m122.2 0c.5 1.7-1.3 3.3-3 2.7a22 22 0 0 0-27 10.2c4.2.3 7.7 4 7.8 8.3s-3.5 8-7.8 8.4c3.2 5.9 9.7 9.5 16.4 9.8 2 0 2.8 2.6 1.4 3.9-7.7 7-19.5 9.7-27.8 2.4-.3 5.8-4.7 20.7-12.1 20.7-7.5 0-12-15-12.2-20.7-8.3 7.3-20 4.6-27.8-2.4a2.4 2.4 0 0 1 1.4-4c6.7-.2 13.2-3.8 16.4-9.7-4.3-.4-7.8-4-7.7-8.4 0-4.3 3.5-8 7.8-8.3A22 22 0 0 0 329 80.3c-1.7.6-3.5-1-3-2.7 5.2-18.2 24.1-22 37-8.7-2.9-15.3-2.5-37.8 14.3-44.7q.8-.4 1.7 0c16.8 6.8 17.2 29.5 14.4 44.7 12.8-13.2 31.7-9.5 37 8.7m-244.4 0c.5 1.7-1.3 3.3-3 2.7-10-3.7-22.2.5-27.1 10.2 4.3.3 7.8 4 7.9 8.3 0 4.3-3.5 8-7.8 8.4 3.2 5.9 9.7 9.5 16.4 9.8 2 0 2.8 2.6 1.4 3.9-7.7 7-19.5 9.7-27.8 2.4-.3 5.8-4.7 20.7-12.2 20.7s-11.8-15-12-20.7c-8.4 7.3-20.2 4.6-27.9-2.4a2.4 2.4 0 0 1 1.4-4c6.7-.2 13.2-3.8 16.4-9.7-4.3-.4-7.8-4-7.7-8.4 0-4.3 3.5-8 7.8-8.3a22 22 0 0 0-27.1-10.2c-1.7.6-3.5-1-3-2.7 5.2-18.2 24.1-22 37-8.7-2.9-15.3-2.5-37.8 14.3-44.7q.8-.4 1.7 0c16.8 6.8 17.2 29.5 14.4 44.7 12.8-13.2 31.7-9.5 37 8.7"/></svg>
